modules/coreui-icons-brand/icons/creative-commons-zero.svg

<svg version="1.1" xmlns="http://www.w3.org/2000/svg" width="32" height="32" viewBox="0 0 32 32">
<title>creative-commons-zero</title>
<path d="M15.975 0.5c8.862 0 15.525 6.881 15.525 15.5 0 9.194-7.406 15.5-15.525 15.5-8.375 0-15.475-6.844-15.475-15.5 0-8.306 6.544-15.5 15.475-15.5zM16.025 3.294c-7.387 0-12.731 6.119-12.731 12.706 0 6.863 5.7 12.675 12.731 12.675 6.45 0 12.675-5.069 12.675-12.675 0.006-7.113-5.637-12.706-12.675-12.706zM16 7.075c-5.119 0-6.406 4.831-6.406 8.925s1.288 8.925 6.406 8.925c5.119 0 6.406-4.831 6.406-8.925s-1.288-8.925-6.406-8.925zM16 10.444c0.206 0 0.4 0.031 0.575 0.075 0.369 0.319 0.55 0.756 0.194 1.369l-3.406 6.262c-0.106-0.794-0.119-1.569-0.119-2.15 0-1.8 0.125-5.556 2.756-5.556zM18.55 13.331c0.181 0.962 0.206 1.962 0.206 2.669 0 1.806-0.125 5.556-2.756 5.556-0.844 0-2.038-0.481-1.256-1.65z"></path>
</svg>

<svg xmlns="http://www.w3.org/2000/svg" width="32" height="32" viewBox="0 0 32 32"><path d="M15.975.5C24.837.5 31.5 7.381 31.5 16c0 9.194-7.406 15.5-15.525 15.5C7.6 31.5.5 24.656.5 16 .5 7.694 7.044.5 15.975.5zm.05 2.794C8.638 3.294 3.294 9.413 3.294 16c0 6.863 5.7 12.675 12.731 12.675 6.45 0 12.675-5.069 12.675-12.675.006-7.113-5.637-12.706-12.675-12.706zM16 7.075c-5.119 0-6.406 4.831-6.406 8.925s1.288 8.925 6.406 8.925c5.119 0 6.406-4.831 6.406-8.925S21.118 7.075 16 7.075zm0 3.369c.206 0 .4.031.575.075.369.319.55.756.194 1.369l-3.406 6.262a16.353 16.353 0 01-.119-2.15c0-1.8.125-5.556 2.756-5.556zm2.55 2.887c.181.962.206 1.962.206 2.669 0 1.806-.125 5.556-2.756 5.556-.844 0-2.038-.481-1.256-1.65z"/></svg>
